X: 166
T: the Shady Bow'rs
T: Longways &c.
%R: reel
B: Daniel Wright "Wright's Compleat Collection of Celebrated Country Dances" 1740 p.83
S: http://library.efdss.org/cgi-bin/dancebooks.cgi
Z: 2014 John Chambers <jc:trillian.mit.edu>
N: Repeats modified to match the "Each strain twice" instruction.
M: C|
L: 1/8
K: D
% - - - - - - - - - - - - - - - - - - - - - - - - -
A2 |\
dede f2d2 | edcB A2d2 | G2FG E2A2 | F2EF D2A2 |\
d4 (c2B2) | c2^G2 A2d2 | B4 B3A | A6 :|
|: A2 |\
B2AB G2B2 | c2Bc A2c2 | d2cd B2g2 | e4 z2A2 |\
B4 c4 | dede f2ed | A4 c4 | d6 :|
% - - - - - - - - - - - - - - - - - - - - - - - - -
%%center Each strain twice.
%%begintext align
%% The 1st Man whole figure on his own side, and
%% the 1st Wo. on her side at the same time .| The
%% 1st Man leads his partner quite thro' the bottom,
%% and cast up to the top, and lead into the 2d
%% Cu. place :| then change places with the 3d
%% Cu. all four quite round and cast off, and lead
%% up quite round thro' the top and cast off .| right
%% and left quite round at top, and turn their partner :
%%endtext
% - - - - - - - - - - - - - - - - - - - - - - - - -
%%sep 2 4 300
